X:1
T:Come viver
T:Come viver
T:Claudio Saracini
T:Source : Le terze Musischi per cantar e sonar---Venetie---A.Vincenti---1620. Editor : André Vierendeels (14/01/16).
T:Notes : Original clefs : C1, F4 Figures above the BC are notated in original print The original print was damaged (perhaps during WWII), necessitating an editorial addendum mm29-30 and text mm31-32 
T:©
T:©
T:©
C:Claudio Saracini
Z:©
%%score 1 2
L:1/8
Q:1/4=122
M:4/4
K:C
V:1 treble nm="Soprano" snm="S"
V:2 bass nm="MusicXML Part"
V:1
 FG A4 EF | D4 D4 | Bc d4 AB | G4 G4 | e6 AA | A6 E2 | ^F8 | ^F8 | cG G4 AB | c4 ^c4 | eA A4 Bc | %11
w: Co- me vi- ver pos-|s'i- o,|co- me vi- ver pos-|s'i- o|pri- vo di|te, cor|mi-|o|co- me pos- s'io mo-|ri- re,|co- me pos- s'io mo-|
 d4 ^d4 | e2 dc BA ^G2 | c6 BB | B8 | A8 :: d8 | z4 e4- | e2 GA B3 c | d8 | c8 | dd e4 BB | %22
w: ri- re,|s'ai ve- der te mio sol|ces- sa'il mo-|ri-|re.|ah,|ah|_ ch'in me vuol A-|mo-|re|che pe- no- sa'e gra-|
 ^c4 c4 | ^GG A4 EE | ^F8 | ^F8 | z2 B2 d4 | z ^FFG A2 A2 | c4 GFED | E8 | B6 ^G^F | ^G8 | A6 FE | %33
w: di- ta|sia la mor- t'e la|vi-|ta|co- si|per en- tro'il co- re|vi- * * * *|||ve|la vi- ta|
 E8 | D8 :| %35
w: mo-|re.|
V:2
"^BC" D,4 ^C,4 | D,4 D,,4 | G,4 ^F,4 | G,4 G,,4 | ^C,8- | C,8 | D,8 | D,,8 | C,8 | C,2 B,,2 A,,4 | %10
 ^C,4 ^F,4 | D,2 C,2 B,,4 | C,2 D,2 E,4 | C,2 D,2 E,4- | E,8 | A,,8 :: G,,8 | C,8- | C,4 G,4 | %19
 G,,8 | C,8 | ^F,2 ^C,4 ^G,,2 | A,,8 | E,2 ^C,4 C,2 | D,8 | D,,8 | G,,8 | D,8 | C,8 | A,,8 | E,8- | %31
 E,8 | A,,8- | A,,8 | D,8 :| %35

